src/img/artigos/como-cativar-clientes/feedback.svg

<svg xmlns="http://www.w3.org/2000/svg" xmlns:xlink="http://www.w3.org/1999/xlink" width="28" height="28"><path d="M10.5 1.5h5v5h-5z" fill="#eef2fa"/><path d="M12 4V1.5h-1.5v5h5V5H13a.94.94 0 0 1-1-1z" fill="#d5e5f2"/><path d="M10.5 11.5h5v5h-5z" fill="#eef2fa"/><path d="M12 14v-2.5h-1.5v5h5V15H13a.94.94 0 0 1-1-1z" fill="#d5e5f2"/><path d="M10.5 21.5h5v5h-5z" fill="#eef2fa"/><path d="M12 24v-2.5h-1.5v5h5V25H13a.94.94 0 0 1-1-1z" fill="#d5e5f2"/><circle cx="4" cy="4" r="3.5" fill="#91ca60"/><circle cx="4" cy="14" r="3.5" fill="#fecb5b"/><circle cx="4" cy="24" r="3.5" fill="#ef4a4c"/><path d="M2.5 4C2.5 2.4 3.6 1.1 5 .7 4.7.6 4.3.5 4 .5 2.1.5.5 2.1.5 4S2.1 7.5 4 7.5c.3 0 .7-.1 1-.2C3.6 6.9 2.5 5.6 2.5 4z" fill="#70bb57"/><path d="M2.5 14c0-1.6 1.1-2.9 2.5-3.3-.3-.1-.7-.2-1-.2C2.1 10.5.5 12.1.5 14s1.6 3.5 3.5 3.5c.3 0 .7-.1 1-.2-1.4-.4-2.5-1.7-2.5-3.3z" fill="#f8b545"/><path d="M2.5 24c0-1.6 1.1-2.9 2.5-3.3-.3-.1-.7-.2-1-.2C2.1 20.5.5 22.1.5 24s1.6 3.5 3.5 3.5c.3 0 .7-.1 1-.2-1.4-.4-2.5-1.7-2.5-3.3z" fill="#e0313f"/><g fill="#004463"><path d="M4 8C1.8 8 0 6.2 0 4s1.8-4 4-4 4 1.8 4 4-1.8 4-4 4zm0-7C2.3 1 1 2.3 1 4s1.3 3 3 3 3-1.3 3-3-1.3-3-3-3zm0 5c-.5 0-1-.2-1.4-.6-.2-.2-.2-.5 0-.7s.5-.2.7 0c.4.4 1 .4 1.4 0 .2-.2.5-.2.7 0s.2.5 0 .7C5 5.8 4.5 6 4 6z"/><circle cx="2.8" cy="3" r=".5"/><circle cx="5.3" cy="3" r=".5"/><use xlink:href="#B"/><path d="M5.1 15.5H2.9a.47.47 0 0 1-.5-.5.47.47 0 0 1 .5-.5H5a.47.47 0 0 1 .5.5c0 .3-.2.5-.4.5z"/><circle cx="2.8" cy="13" r=".5"/><circle cx="5.3" cy="13" r=".5"/><use xlink:href="#B" y="10"/><path d="M5.1 26c-.1 0-.3 0-.4-.1-.4-.4-1-.4-1.4 0-.2.2-.5.2-.7 0s-.2-.5 0-.7c.7-.7 2.1-.7 2.8 0 .2.2.2.5 0 .7-.1.1-.2.1-.3.1z"/><circle cx="2.8" cy="23" r=".5"/><circle cx="5.3" cy="23" r=".5"/><path d="M15.5 7h-5a.47.47 0 0 1-.5-.5v-5a.47.47 0 0 1 .5-.5h5a.47.47 0 0 1 .5.5v5a.47.47 0 0 1-.5.5zM11 6h4V2h-4z"/><path d="M13.4 5.5c-.1 0-.3 0-.4-.1L11.6 4c-.2-.2-.2-.5 0-.7s.5-.2.7 0l1.1 1.1 3.2-3.2c.2-.2.5-.2.7 0s.2.5 0 .7l-3.5 3.5c-.1 0-.2.1-.4.1zM15.5 17h-5a.47.47 0 0 1-.5-.5v-5a.47.47 0 0 1 .5-.5h5a.47.47 0 0 1 .5.5v5a.47.47 0 0 1-.5.5zM11 16h4v-4h-4zm4.5 11h-5a.47.47 0 0 1-.5-.5v-5a.47.47 0 0 1 .5-.5h5a.47.47 0 0 1 .5.5v5a.47.47 0 0 1-.5.5zM11 26h4v-4h-4zm16.5-3h-9a.47.47 0 0 1-.5-.5.47.47 0 0 1 .5-.5h9a.47.47 0 0 1 .5.5.47.47 0 0 1-.5.5zm-3 2h-6a.47.47 0 0 1-.5-.5.47.47 0 0 1 .5-.5h6a.47.47 0 0 1 .5.5.47.47 0 0 1-.5.5zm3-12h-9a.47.47 0 0 1-.5-.5.47.47 0 0 1 .5-.5h9a.47.47 0 0 1 .5.5.47.47 0 0 1-.5.5zm-3 2h-6a.47.47 0 0 1-.5-.5.47.47 0 0 1 .5-.5h6a.47.47 0 0 1 .5.5.47.47 0 0 1-.5.5zm3-12h-9a.47.47 0 0 1-.5-.5.47.47 0 0 1 .5-.5h9a.47.47 0 0 1 .5.5.47.47 0 0 1-.5.5zm-3 2h-6a.47.47 0 0 1-.5-.5.47.47 0 0 1 .5-.5h6a.47.47 0 0 1 .5.5.47.47 0 0 1-.5.5z"/></g><defs ><path id="B" d="M4 18c-2.2 0-4-1.8-4-4s1.8-4 4-4 4 1.8 4 4-1.8 4-4 4zm0-7c-1.7 0-3 1.3-3 3s1.3 3 3 3 3-1.3 3-3-1.3-3-3-3z"/></defs></svg>

<?xml version="1.0" encoding="UTF-8" standalone="no"?>
<svg
   xmlns:dc="http://purl.org/dc/elements/1.1/"
   xmlns:cc="http://creativecommons.org/ns#"
   xmlns:rdf="http://www.w3.org/1999/02/22-rdf-syntax-ns#"
   xmlns:svg="http://www.w3.org/2000/svg"
   xmlns="http://www.w3.org/2000/svg"
   xmlns:sodipodi="http://sodipodi.sourceforge.net/DTD/sodipodi-0.dtd"
   xmlns:inkscape="http://www.inkscape.org/namespaces/inkscape"
   viewBox="0 0 28 28"
   version="1.1"
   id="svg3709"
   sodipodi:docname="feedback.svg"
   inkscape:version="0.92.4 (unknown)"
   width="28"
   height="28">
  <metadata
     id="metadata3715">
    <rdf:RDF>
      <cc:Work
         rdf:about="">
        <dc:format>image/svg+xml</dc:format>
        <dc:type
           rdf:resource="http://purl.org/dc/dcmitype/StillImage" />
        <dc:title></dc:title>
      </cc:Work>
    </rdf:RDF>
  </metadata>
  <defs
     id="defs3713" />
  <sodipodi:namedview
     pagecolor="#ffffff"
     bordercolor="#666666"
     borderopacity="1"
     objecttolerance="10"
     gridtolerance="10"
     guidetolerance="10"
     inkscape:pageopacity="0"
     inkscape:pageshadow="2"
     inkscape:window-width="1315"
     inkscape:window-height="713"
     id="namedview3711"
     showgrid="false"
     inkscape:zoom="17.25"
     inkscape:cx="25.594203"
     inkscape:cy="14"
     inkscape:window-x="51"
     inkscape:window-y="27"
     inkscape:window-maximized="1"
     inkscape:current-layer="svg3709"
     fit-margin-top="0"
     fit-margin-left="0"
     fit-margin-right="0"
     fit-margin-bottom="0" />
  <path
     d="m 10.5,1.5 h 5 v 5 h -5 z"
     id="path3657"
     inkscape:connector-curvature="0"
     style="fill:#eef2fa" />
  <path
     d="M 12,4 V 1.5 h -1.5 v 5 h 5 V 5 H 13 C 12.4,5 12,4.6 12,4 Z"
     id="path3659"
     inkscape:connector-curvature="0"
     style="fill:#d5e5f2" />
  <path
     d="m 10.5,11.5 h 5 v 5 h -5 z"
     id="path3661"
     inkscape:connector-curvature="0"
     style="fill:#eef2fa" />
  <path
     d="m 12,14 v -2.5 h -1.5 v 5 h 5 V 15 H 13 c -0.6,0 -1,-0.4 -1,-1 z"
     id="path3663"
     inkscape:connector-curvature="0"
     style="fill:#d5e5f2" />
  <path
     d="m 10.5,21.5 h 5 v 5 h -5 z"
     id="path3665"
     inkscape:connector-curvature="0"
     style="fill:#eef2fa" />
  <path
     d="m 12,24 v -2.5 h -1.5 v 5 h 5 V 25 H 13 c -0.6,0 -1,-0.4 -1,-1 z"
     id="path3667"
     inkscape:connector-curvature="0"
     style="fill:#d5e5f2" />
  <circle
     cx="4"
     cy="4"
     r="3.5"
     id="circle3669"
     style="fill:#91ca60;fill-opacity:1" />
  <circle
     cx="4"
     cy="14"
     r="3.5"
     id="circle3671"
     style="fill:#fecb5b;fill-opacity:1" />
  <circle
     cx="4"
     cy="24"
     r="3.5"
     id="circle3673"
     style="fill:#ef4a4c" />
  <path
     d="M 2.5,4 C 2.5,2.4 3.6,1.1 5,0.7 4.7,0.6 4.3,0.5 4,0.5 2.1,0.5 0.5,2.1 0.5,4 0.5,5.9 2.1,7.5 4,7.5 4.3,7.5 4.7,7.4 5,7.3 3.6,6.9 2.5,5.6 2.5,4 Z"
     id="path3675"
     style="fill:#70bb57;fill-opacity:1"
     inkscape:connector-curvature="0" />
  <path
     d="M 2.5,14 C 2.5,12.4 3.6,11.1 5,10.7 4.7,10.6 4.3,10.5 4,10.5 c -1.9,0 -3.5,1.6 -3.5,3.5 0,1.9 1.6,3.5 3.5,3.5 0.3,0 0.7,-0.1 1,-0.2 C 3.6,16.9 2.5,15.6 2.5,14 Z"
     id="path3677"
     style="fill:#f8b545;fill-opacity:1"
     inkscape:connector-curvature="0" />
  <path
     d="M 2.5,24 C 2.5,22.4 3.6,21.1 5,20.7 4.7,20.6 4.3,20.5 4,20.5 c -1.9,0 -3.5,1.6 -3.5,3.5 0,1.9 1.6,3.5 3.5,3.5 0.3,0 0.7,-0.1 1,-0.2 C 3.6,26.9 2.5,25.6 2.5,24 Z"
     id="path3679"
     inkscape:connector-curvature="0"
     style="fill:#e0313f" />
  <path
     d="M 4,8 C 1.8,8 0,6.2 0,4 0,1.8 1.8,0 4,0 6.2,0 8,1.8 8,4 8,6.2 6.2,8 4,8 Z M 4,1 C 2.3,1 1,2.3 1,4 1,5.7 2.3,7 4,7 5.7,7 7,5.7 7,4 7,2.3 5.7,1 4,1 Z"
     id="path3681"
     inkscape:connector-curvature="0"
     style="fill:#004463" />
  <path
     d="M 4,6 C 3.5,6 3,5.8 2.6,5.4 2.4,5.2 2.4,4.9 2.6,4.7 c 0.2,-0.2 0.5,-0.2 0.7,0 0.4,0.4 1,0.4 1.4,0 0.2,-0.2 0.5,-0.2 0.7,0 0.2,0.2 0.2,0.5 0,0.7 C 5,5.8 4.5,6 4,6 Z"
     id="path3683"
     inkscape:connector-curvature="0"
     style="fill:#004463" />
  <circle
     cx="2.8000002"
     cy="3"
     r="0.5"
     id="circle3685"
     style="fill:#004463" />
  <circle
     cx="5.3000002"
     cy="3"
     r="0.5"
     id="circle3687"
     style="fill:#004463" />
  <path
     d="m 4,18 c -2.2,0 -4,-1.8 -4,-4 0,-2.2 1.8,-4 4,-4 2.2,0 4,1.8 4,4 0,2.2 -1.8,4 -4,4 z m 0,-7 c -1.7,0 -3,1.3 -3,3 0,1.7 1.3,3 3,3 1.7,0 3,-1.3 3,-3 0,-1.7 -1.3,-3 -3,-3 z"
     id="path3689"
     inkscape:connector-curvature="0"
     style="fill:#004463" />
  <path
     d="M 5.1,15.5 H 2.9 C 2.6,15.5 2.4,15.3 2.4,15 2.4,14.7 2.6,14.5 2.9,14.5 H 5 c 0.3,0 0.5,0.2 0.5,0.5 0,0.3 -0.2,0.5 -0.4,0.5 z"
     id="path3691"
     inkscape:connector-curvature="0"
     style="fill:#004463" />
  <circle
     cx="2.8000002"
     cy="13"
     r="0.5"
     id="circle3693"
     style="fill:#004463" />
  <circle
     cx="5.3000002"
     cy="13"
     r="0.5"
     id="circle3695"
     style="fill:#004463" />
  <path
     d="m 4,28 c -2.2,0 -4,-1.8 -4,-4 0,-2.2 1.8,-4 4,-4 2.2,0 4,1.8 4,4 0,2.2 -1.8,4 -4,4 z m 0,-7 c -1.7,0 -3,1.3 -3,3 0,1.7 1.3,3 3,3 1.7,0 3,-1.3 3,-3 0,-1.7 -1.3,-3 -3,-3 z"
     id="path3697"
     inkscape:connector-curvature="0"
     style="fill:#004463" />
  <path
     d="M 5.1,26 C 5,26 4.8,26 4.7,25.9 c -0.4,-0.4 -1,-0.4 -1.4,0 -0.2,0.2 -0.5,0.2 -0.7,0 -0.2,-0.2 -0.2,-0.5 0,-0.7 0.7,-0.7 2.1,-0.7 2.8,0 0.2,0.2 0.2,0.5 0,0.7 C 5.3,26 5.2,26 5.1,26 Z"
     id="path3699"
     inkscape:connector-curvature="0"
     style="fill:#004463" />
  <circle
     cx="2.8000002"
     cy="23"
     r="0.5"
     id="circle3701"
     style="fill:#004463" />
  <circle
     cx="5.3000002"
     cy="23"
     r="0.5"
     id="circle3703"
     style="fill:#004463" />
  <path
     d="m 15.5,7 h -5 C 10.2,7 10,6.8 10,6.5 v -5 C 10,1.2 10.2,1 10.5,1 h 5 C 15.8,1 16,1.2 16,1.5 v 5 C 16,6.8 15.8,7 15.5,7 Z M 11,6 h 4 V 2 h -4 z"
     id="path3705"
     inkscape:connector-curvature="0"
     style="fill:#004463" />
  <path
     d="m 13.4,5.5 c -0.1,0 -0.3,0 -0.4,-0.1 L 11.6,4 c -0.2,-0.2 -0.2,-0.5 0,-0.7 0.2,-0.2 0.5,-0.2 0.7,0 l 1.1,1.1 3.2,-3.2 c 0.2,-0.2 0.5,-0.2 0.7,0 0.2,0.2 0.2,0.5 0,0.7 l -3.5,3.5 c -0.1,0 -0.2,0.1 -0.4,0.1 z M 15.5,17 h -5 C 10.2,17 10,16.8 10,16.5 v -5 C 10,11.2 10.2,11 10.5,11 h 5 c 0.3,0 0.5,0.2 0.5,0.5 v 5 C 16,16.8 15.8,17 15.5,17 Z M 11,16 h 4 v -4 h -4 z m 4.5,11 h -5 C 10.2,27 10,26.8 10,26.5 v -5 C 10,21.2 10.2,21 10.5,21 h 5 c 0.3,0 0.5,0.2 0.5,0.5 v 5 C 16,26.8 15.8,27 15.5,27 Z M 11,26 h 4 v -4 h -4 z m 16.5,-3 h -9 C 18.2,23 18,22.8 18,22.5 18,22.2 18.2,22 18.5,22 h 9 c 0.3,0 0.5,0.2 0.5,0.5 0,0.3 -0.2,0.5 -0.5,0.5 z m -3,2 h -6 C 18.2,25 18,24.8 18,24.5 18,24.2 18.2,24 18.5,24 h 6 c 0.3,0 0.5,0.2 0.5,0.5 0,0.3 -0.2,0.5 -0.5,0.5 z m 3,-12 h -9 C 18.2,13 18,12.8 18,12.5 18,12.2 18.2,12 18.5,12 h 9 c 0.3,0 0.5,0.2 0.5,0.5 0,0.3 -0.2,0.5 -0.5,0.5 z m -3,2 h -6 C 18.2,15 18,14.8 18,14.5 18,14.2 18.2,14 18.5,14 h 6 c 0.3,0 0.5,0.2 0.5,0.5 0,0.3 -0.2,0.5 -0.5,0.5 z m 3,-12 h -9 C 18.2,3 18,2.8 18,2.5 18,2.2 18.2,2 18.5,2 h 9 C 27.8,2 28,2.2 28,2.5 28,2.8 27.8,3 27.5,3 Z m -3,2 h -6 C 18.2,5 18,4.8 18,4.5 18,4.2 18.2,4 18.5,4 h 6 C 24.8,4 25,4.2 25,4.5 25,4.8 24.8,5 24.5,5 Z"
     id="path3707"
     inkscape:connector-curvature="0"
     style="fill:#004463" />
</svg>
